Ravo/tests/fixtures/crs_pv2012_heishijiao.xmp
<x:xmpmeta xmlns:x="adobe:ns:meta/" x:xmptk="Adobe XMP Core 5.6-c140 79.160451, 2017/05/06-01:08:21        ">
 <rdf:RDF xmlns:rdf="http://www.w3.org/1999/02/22-rdf-syntax-ns#">
  <rdf:Description rdf:about=""
    xmlns:crs="http://ns.adobe.com/camera-raw-settings/1.0/"
   crs:PresetType="Normal"
   crs:Cluster=""
   crs:UUID="A356E49290265140A32B268C3655415E"
   crs:SupportsAmount="False"
   crs:SupportsColor="True"
   crs:SupportsMonochrome="True"
   crs:SupportsHighDynamicRange="True"
   crs:SupportsNormalDynamicRange="True"
   crs:SupportsSceneReferred="True"
   crs:SupportsOutputReferred="True"
   crs:CameraModelRestriction=""
   crs:Copyright=""
   crs:ContactInfo=""
   crs:Version="11.2"
   crs:ProcessVersion="10.0"
   crs:WhiteBalance="As Shot"
   crs:Saturation="-5"
   crs:Sharpness="56"
   crs:LuminanceSmoothing="39"
   crs:ColorNoiseReduction="25"
   crs:ShadowTint="-2"
   crs:RedHue="+35"
   crs:RedSaturation="+45"
   crs:GreenHue="+55"
   crs:GreenSaturation="-10"
   crs:BlueHue="-10"
   crs:BlueSaturation="+2"
   crs:Vibrance="+13"
   crs:HueAdjustmentRed="+15"
   crs:HueAdjustmentOrange="-2"
   crs:HueAdjustmentYellow="0"
   crs:HueAdjustmentGreen="+10"
   crs:HueAdjustmentAqua="+10"
   crs:HueAdjustmentBlue="-5"
   crs:HueAdjustmentPurple="0"
   crs:HueAdjustmentMagenta="+20"
   crs:SaturationAdjustmentRed="-25"
   crs:SaturationAdjustmentOrange="-5"
   crs:SaturationAdjustmentYellow="-15"
   crs:SaturationAdjustmentGreen="-35"
   crs:SaturationAdjustmentAqua="-50"
   crs:SaturationAdjustmentBlue="-30"
   crs:SaturationAdjustmentPurple="-40"
   crs:SaturationAdjustmentMagenta="-35"
   crs:LuminanceAdjustmentRed="+5"
   crs:LuminanceAdjustmentOrange="+2"
   crs:LuminanceAdjustmentYellow="+10"
   crs:LuminanceAdjustmentGreen="0"
   crs:LuminanceAdjustmentAqua="+10"
   crs:LuminanceAdjustmentBlue="-25"
   crs:LuminanceAdjustmentPurple="+15"
   crs:LuminanceAdjustmentMagenta="+5"
   crs:SplitToningShadowHue="0"
   crs:SplitToningShadowSaturation="0"
   crs:SplitToningHighlightHue="0"
   crs:SplitToningHighlightSaturation="0"
   crs:SplitToningBalance="-80"
   crs:ParametricShadows="0"
   crs:ParametricDarks="0"
   crs:ParametricLights="0"
   crs:ParametricHighlights="0"
   crs:ParametricShadowSplit="14"
   crs:ParametricMidtoneSplit="43"
   crs:ParametricHighlightSplit="75"
   crs:SharpenRadius="+1.0"
   crs:SharpenDetail="25"
   crs:SharpenEdgeMasking="72"
   crs:PostCropVignetteAmount="-21"
   crs:PostCropVignetteMidpoint="31"
   crs:PostCropVignetteFeather="50"
   crs:PostCropVignetteRoundness="0"
   crs:PostCropVignetteStyle="1"
   crs:PostCropVignetteHighlightContrast="0"
   crs:GrainAmount="0"
   crs:LuminanceNoiseReductionDetail="50"
   crs:ColorNoiseReductionDetail="50"
   crs:LuminanceNoiseReductionContrast="0"
   crs:ColorNoiseReductionSmoothness="50"
   crs:PerspectiveVertical="0"
   crs:PerspectiveHorizontal="0"
   crs:PerspectiveRotate="0.0"
   crs:PerspectiveScale="100"
   crs:PerspectiveAspect="0"
   crs:PerspectiveUpright="0"
   crs:PerspectiveX="0.00"
   crs:PerspectiveY="0.00"
   crs:Exposure2012="-0.41"
   crs:Contrast2012="0"
   crs:Highlights2012="-70"
   crs:Shadows2012="+57"
   crs:Whites2012="-77"
   crs:Blacks2012="+20"
   crs:Clarity2012="0"
   crs:Dehaze="0"
   crs:ConvertToGrayscale="False"
   crs:OverrideLookVignette="True"
   crs:ToneCurveName2012="Custom"
   crs:CameraProfile="Adobe Standard"
   crs:HasSettings="True">
   <crs:Name>
    <rdf:Alt>
     <rdf:li xml:lang="x-default">黑石礁大坝</rdf:li>
    </rdf:Alt>
   </crs:Name>
   <crs:ShortName>
    <rdf:Alt>
     <rdf:li xml:lang="x-default"/>
    </rdf:Alt>
   </crs:ShortName>
   <crs:SortName>
    <rdf:Alt>
     <rdf:li xml:lang="x-default"/>
    </rdf:Alt>
   </crs:SortName>
   <crs:Group>
    <rdf:Alt>
     <rdf:li xml:lang="x-default"/>
    </rdf:Alt>
   </crs:Group>
   <crs:Description>
    <rdf:Alt>
     <rdf:li xml:lang="x-default"/>
    </rdf:Alt>
   </crs:Description>
   <crs:ToneCurvePV2012>
    <rdf:Seq>
     <rdf:li>0, 16</rdf:li>
     <rdf:li>25, 27</rdf:li>
     <rdf:li>49, 48</rdf:li>
     <rdf:li>255, 251</rdf:li>
    </rdf:Seq>
   </crs:ToneCurvePV2012>
   <crs:ToneCurvePV2012Red>
    <rdf:Seq>
     <rdf:li>0, 0</rdf:li>
     <rdf:li>21, 4</rdf:li>
     <rdf:li>56, 20</rdf:li>
     <rdf:li>118, 122</rdf:li>
     <rdf:li>176, 205</rdf:li>
     <rdf:li>255, 255</rdf:li>
    </rdf:Seq>
   </crs:ToneCurvePV2012Red>
   <crs:ToneCurvePV2012Green>
    <rdf:Seq>
     <rdf:li>0, 0</rdf:li>
     <rdf:li>53, 21</rdf:li>
     <rdf:li>120, 125</rdf:li>
     <rdf:li>179, 205</rdf:li>
     <rdf:li>255, 255</rdf:li>
    </rdf:Seq>
   </crs:ToneCurvePV2012Green>
   <crs:ToneCurvePV2012Blue>
    <rdf:Seq>
     <rdf:li>0, 0</rdf:li>
     <rdf:li>48, 20</rdf:li>
     <rdf:li>121, 122</rdf:li>
     <rdf:li>175, 200</rdf:li>
     <rdf:li>255, 255</rdf:li>
    </rdf:Seq>
   </crs:ToneCurvePV2012Blue>
   <crs:Look
    crs:Name=""/>
  </rdf:Description>
 </rdf:RDF>
</x:xmpmeta>
